source/images/logo/tailwindcss.svg

<svg fill="none" height="28" viewBox="0 0 226 28" width="226" xmlns="http://www.w3.org/2000/svg" xmlns:xlink="http://www.w3.org/1999/xlink"><linearGradient id="a" gradientUnits="userSpaceOnUse" x1="-1.2963" x2="46.6667" y1=".000001" y2="27.6543"><stop offset="0" stop-color="#2298bd"/><stop offset="1" stop-color="#0ed7b5"/></linearGradient><g clip-rule="evenodd" fill-rule="evenodd"><path d="m23.3333 0c-6.2222 0-10.1111 3.11111-11.6666 9.33333 2.3333-3.11111 5.0555-4.27777 8.1666-3.5 1.7751.44377 3.0438 1.73151 4.4481 3.157 2.2877 2.32207 4.9355 5.00967 10.7186 5.00967 6.2222 0 10.1111-3.1111 11.6667-9.33333-2.3334 3.11111-5.0556 4.27777-8.1667 3.5-1.7751-.44377-3.0438-1.73151-4.4481-3.157-2.2877-2.3221-4.9354-5.00967-10.7186-5.00967zm-11.6666 14c-6.22226 0-10.11114 3.1111-11.6667 9.3333 2.33333-3.1111 5.05555-4.2777 8.16667-3.5 1.77506.4438 3.04383 1.7315 4.44813 3.157 2.2877 2.3221 4.9354 5.0097 10.7185 5.0097 6.2223 0 10.1111-3.1111 11.6667-9.3333-2.3333 3.1111-5.0556 4.2777-8.1667 3.5-1.775-.4438-3.0438-1.7315-4.4481-3.157-2.2877-2.3221-4.9354-5.0097-10.7185-5.0097z" fill="url(#a)"/><path d="m69.9966 11.7975h-4.0721v7.8815c0 2.1017 1.3792 2.0689 4.0721 1.9375v3.1854c-5.4514.6568-7.6188-.8538-7.6188-5.1229v-7.8815h-3.0212v-3.41531h3.0212v-4.41086l3.5467-1.05087v5.46173h4.0721zm15.5227-3.41531h3.5466v16.41971h-3.5466v-2.3644c-1.2479 1.7405-3.1854 2.7914-5.7469 2.7914-4.4662 0-8.1771-3.7766-8.1771-8.6368 0-4.8931 3.7109-8.63683 8.1771-8.63683 2.5615 0 4.499 1.05087 5.7469 2.75853zm-5.1887 13.46421c2.9556 0 5.1887-2.2003 5.1887-5.2543 0-3.0541-2.2331-5.2544-5.1887-5.2544-2.9555 0-5.1886 2.2003-5.1886 5.2544 0 3.054 2.2331 5.2543 5.1886 5.2543zm14.6465-15.92717c-1.2479 0-2.266-1.05087-2.266-2.26593 0-1.2479 1.0181-2.26593 2.266-2.26593s2.2659 1.01803 2.2659 2.26593c0 1.21506-1.018 2.26593-2.2659 2.26593zm-1.7734 18.88267v-16.41971h3.5467v16.41971zm7.6513 0v-23.972798h3.547v23.972798zm26.567-16.41971h3.744l-5.156 16.41971h-3.481l-3.415-11.0669-3.448 11.0669h-3.481l-5.156-16.41971h3.744l3.185 11.32961 3.448-11.32961h3.383l3.415 11.32961zm8.145-2.46296c-1.248 0-2.266-1.05087-2.266-2.26593 0-1.2479 1.018-2.26593 2.266-2.26593s2.266 1.01803 2.266 2.26593c0 1.21506-1.018 2.26593-2.266 2.26593zm-1.774 18.88267v-16.41971h3.547v16.41971zm16.289-16.84663c3.678 0 6.305 2.49583 6.305 6.76493v10.0817h-3.547v-9.7205c0-2.4958-1.445-3.8093-3.678-3.8093-2.331 0-4.17 1.3792-4.17 4.7289v8.8009h-3.547v-16.41971h3.547v2.10171c1.083-1.70764 2.857-2.52863 5.09-2.52863zm23.119-6.14098h3.546v22.98761h-3.546v-2.3644c-1.248 1.7405-3.186 2.7914-5.747 2.7914-4.466 0-8.177-3.7766-8.177-8.6368 0-4.8931 3.711-8.63683 8.177-8.63683 2.561 0 4.499 1.05087 5.747 2.75853zm-5.189 20.03211c2.956 0 5.189-2.2003 5.189-5.2543 0-3.0541-2.233-5.2544-5.189-5.2544-2.955 0-5.189 2.2003-5.189 5.2544 0 3.054 2.234 5.2543 5.189 5.2543zm20.623 3.3825c-4.958 0-8.669-3.7766-8.669-8.6368 0-4.8931 3.711-8.63683 8.669-8.63683 3.219 0 6.01 1.67482 7.324 4.23633l-3.055 1.7733c-.722-1.5435-2.331-2.5286-4.302-2.5286-2.889 0-5.09 2.2002-5.09 5.1558 0 2.9555 2.201 5.1558 5.09 5.1558 1.971 0 3.58-1.0181 4.368-2.5287l3.054 1.7405c-1.379 2.5943-4.17 4.2692-7.389 4.2692zm13.235-12.3149c0 2.9884 8.833 1.1823 8.833 7.2576 0 3.2839-2.857 5.0573-6.403 5.0573-3.284 0-5.649-1.4778-6.699-3.8423l3.054-1.7733c.525 1.4778 1.839 2.3644 3.645 2.3644 1.576 0 2.791-.5254 2.791-1.839 0-2.9227-8.834-1.2807-8.834-7.159 0-3.08689 2.66-5.02443 6.01-5.02443 2.693 0 4.926 1.24791 6.075 3.41533l-2.988 1.6748c-.591-1.2807-1.741-1.8719-3.087-1.8719-1.281 0-2.397.5583-2.397 1.7405zm15.139 0c0 2.9884 8.833 1.1823 8.833 7.2576 0 3.2839-2.857 5.0573-6.403 5.0573-3.284 0-5.649-1.4778-6.699-3.8423l3.054-1.7733c.525 1.4778 1.839 2.3644 3.645 2.3644 1.576 0 2.791-.5254 2.791-1.839 0-2.9227-8.834-1.2807-8.834-7.159 0-3.08689 2.66-5.02443 6.01-5.02443 2.693 0 4.926 1.24791 6.075 3.41533l-2.988 1.6748c-.591-1.2807-1.741-1.8719-3.087-1.8719-1.281 0-2.397.5583-2.397 1.7405z" fill="#2d3748"/></g></svg>

<svg width="226" height="28" viewBox="0 0 226 28" fill="none" xmlns="http://www.w3.org/2000/svg">
<path fill-rule="evenodd" clip-rule="evenodd" d="M23.3333 0C17.1111 0 13.2222 3.11111 11.6667 9.33333C14 6.22222 16.7222 5.05556 19.8333 5.83333C21.6084 6.2771 22.8771 7.56484 24.2814 8.99033C26.5691 11.3124 29.2169 14 35 14C41.2222 14 45.1111 10.8889 46.6667 4.66667C44.3333 7.77778 41.6111 8.94444 38.5 8.16667C36.7249 7.7229 35.4562 6.43516 34.0519 5.00967C31.7642 2.68757 29.1165 0 23.3333 0ZM11.6667 14C5.44444 14 1.55556 17.1111 0 23.3333C2.33333 20.2222 5.05555 19.0556 8.16667 19.8333C9.94173 20.2771 11.2105 21.5648 12.6148 22.9903C14.9025 25.3124 17.5502 28 23.3333 28C29.5556 28 33.4444 24.8889 35 18.6667C32.6667 21.7778 29.9444 22.9444 26.8333 22.1667C25.0583 21.7229 23.7895 20.4352 22.3852 19.0097C20.0975 16.6876 17.4498 14 11.6667 14Z" fill="url(#paint0_linear)"/>
<path fill-rule="evenodd" clip-rule="evenodd" d="M69.9966 11.7975H65.9245V19.679C65.9245 21.7807 67.3037 21.7479 69.9966 21.6165V24.8019C64.5452 25.4587 62.3778 23.9481 62.3778 19.679V11.7975H59.3566V8.38219H62.3778V3.97133L65.9245 2.92046V8.38219H69.9966V11.7975ZM85.5193 8.38219H89.0659V24.8019H85.5193V22.4375C84.2714 24.178 82.3339 25.2289 79.7724 25.2289C75.3062 25.2289 71.5953 21.4523 71.5953 16.5921C71.5953 11.699 75.3062 7.95527 79.7724 7.95527C82.3339 7.95527 84.2714 9.00614 85.5193 10.7138V8.38219ZM80.3306 21.8464C83.2862 21.8464 85.5193 19.6461 85.5193 16.5921C85.5193 13.538 83.2862 11.3377 80.3306 11.3377C77.3751 11.3377 75.142 13.538 75.142 16.5921C75.142 19.6461 77.3751 21.8464 80.3306 21.8464ZM94.9771 5.91923C93.7292 5.91923 92.7111 4.86836 92.7111 3.6533C92.7111 2.4054 93.7292 1.38737 94.9771 1.38737C96.225 1.38737 97.243 2.4054 97.243 3.6533C97.243 4.86836 96.225 5.91923 94.9771 5.91923ZM93.2037 24.8019V8.38219H96.7504V24.8019H93.2037ZM100.855 24.8019V0.829102H104.402V24.8019H100.855ZM127.422 8.38219H131.166L126.01 24.8019H122.529L119.114 13.735L115.666 24.8019H112.185L107.029 8.38219H110.773L113.958 19.7118L117.406 8.38219H120.789L124.204 19.7118L127.422 8.38219ZM135.567 5.91923C134.319 5.91923 133.301 4.86836 133.301 3.6533C133.301 2.4054 134.319 1.38737 135.567 1.38737C136.815 1.38737 137.833 2.4054 137.833 3.6533C137.833 4.86836 136.815 5.91923 135.567 5.91923ZM133.793 24.8019V8.38219H137.34V24.8019H133.793ZM150.082 7.95527C153.76 7.95527 156.387 10.4511 156.387 14.7202V24.8019H152.84V15.0814C152.84 12.5856 151.395 11.2721 149.162 11.2721C146.831 11.2721 144.992 12.6513 144.992 16.001V24.8019H141.445V8.38219H144.992V10.4839C146.075 8.77626 147.849 7.95527 150.082 7.95527ZM173.201 1.81429H176.747V24.8019H173.201V22.4375C171.953 24.178 170.015 25.2289 167.454 25.2289C162.988 25.2289 159.277 21.4523 159.277 16.5921C159.277 11.699 162.988 7.95527 167.454 7.95527C170.015 7.95527 171.953 9.00614 173.201 10.7138V1.81429ZM168.012 21.8464C170.968 21.8464 173.201 19.6461 173.201 16.5921C173.201 13.538 170.968 11.3377 168.012 11.3377C165.057 11.3377 162.823 13.538 162.823 16.5921C162.823 19.6461 165.057 21.8464 168.012 21.8464ZM188.635 25.2289C183.677 25.2289 179.966 21.4523 179.966 16.5921C179.966 11.699 183.677 7.95527 188.635 7.95527C191.854 7.95527 194.645 9.63009 195.959 12.1916L192.904 13.9649C192.182 12.4214 190.573 11.4363 188.602 11.4363C185.713 11.4363 183.512 13.6365 183.512 16.5921C183.512 19.5476 185.713 21.7479 188.602 21.7479C190.573 21.7479 192.182 20.7298 192.97 19.2192L196.024 20.9597C194.645 23.554 191.854 25.2289 188.635 25.2289ZM201.87 12.914C201.87 15.9024 210.703 14.0963 210.703 20.1716C210.703 23.4555 207.846 25.2289 204.3 25.2289C201.016 25.2289 198.651 23.7511 197.601 21.3866L200.655 19.6133C201.18 21.0911 202.494 21.9777 204.3 21.9777C205.876 21.9777 207.091 21.4523 207.091 20.1387C207.091 17.216 198.257 18.858 198.257 12.9797C198.257 9.89281 200.917 7.95527 204.267 7.95527C206.96 7.95527 209.193 9.20318 210.342 11.3706L207.354 13.0454C206.763 11.7647 205.613 11.1735 204.267 11.1735C202.986 11.1735 201.87 11.7318 201.87 12.914ZM217.009 12.914C217.009 15.9024 225.842 14.0963 225.842 20.1716C225.842 23.4555 222.985 25.2289 219.439 25.2289C216.155 25.2289 213.79 23.7511 212.74 21.3866L215.794 19.6133C216.319 21.0911 217.633 21.9777 219.439 21.9777C221.015 21.9777 222.23 21.4523 222.23 20.1387C222.23 17.216 213.396 18.858 213.396 12.9797C213.396 9.89281 216.056 7.95527 219.406 7.95527C222.099 7.95527 224.332 9.20318 225.481 11.3706L222.493 13.0454C221.902 11.7647 220.752 11.1735 219.406 11.1735C218.125 11.1735 217.009 11.7318 217.009 12.914Z" fill="#2D3748"/>
<defs>
<linearGradient id="paint0_linear" x1="-1.2963" y1="5.8414e-07" x2="46.6667" y2="27.6543" gradientUnits="userSpaceOnUse">
<stop stop-color="#2298BD"/>
<stop offset="1" stop-color="#0ED7B5"/>
</linearGradient>
</defs>
</svg>
